X: 20641
Q: "Moderato"
M: 6/8
L: 1/8
K: C
(c>ed) (cBA) | (G>AF) E2c | B>G^G A<fd | (c3 B2)d |\
dcB {c}BAB | c<EA {G}^F2E | D>E^F G>AB | c2z d3 |\
ecB cA^F | G3- Gz B |
c>BA {B}A^GA | E3- E2z =G/F/ | EGc e2d/c/ | c>AA HA2 B/c/ |\


